public/assets/images/others/icon/07.svg

<svg width="40" height="40" viewBox="0 0 40 40" fill="none" xmlns="http://www.w3.org/2000/svg">
<path fill-rule="evenodd" clip-rule="evenodd" d="M30 5V0H27.5V5H12.5V0H10V5C10 5.66304 10.2634 6.29893 10.7322 6.76777C11.2011 7.23661 11.837 7.5 12.5 7.5H27.5C28.163 7.5 28.7989 7.23661 29.2678 6.76777C29.7366 6.29893 30 5.66304 30 5ZM32.5 12.5V27.5C32.5 28.163 32.2366 28.7989 31.7678 29.2678C31.2989 29.7366 30.663 30 30 30H10C9.33696 30 8.70107 29.7366 8.23223 29.2678C7.76339 28.7989 7.5 28.163 7.5 27.5V12.5C7.5 11.837 7.76339 11.2011 8.23223 10.7322C8.70107 10.2634 9.33696 10 10 10H30C30.663 10 31.2989 10.2634 31.7678 10.7322C32.2366 11.2011 32.5 11.837 32.5 12.5ZM10 27.5H30V12.5H10V27.5ZM30 35V40H27.5V35H12.5V40H10V35C10 34.337 10.2634 33.7011 10.7322 33.2322C11.2011 32.7634 11.837 32.5 12.5 32.5H27.5C28.163 32.5 28.7989 32.7634 29.2678 33.2322C29.7366 33.7011 30 34.337 30 35Z" fill="#132A64"/>
</svg>

<svg xmlns="http://www.w3.org/2000/svg" width="40" height="40" fill="none" viewBox="0 0 40 40"><path fill="#132a64" fill-rule="evenodd" d="M30 5V0h-2.5v5h-15V0H10v5a2.5 2.5 0 0 0 2.5 2.5h15A2.5 2.5 0 0 0 30 5m2.5 7.5v15A2.5 2.5 0 0 1 30 30H10a2.5 2.5 0 0 1-2.5-2.5v-15A2.5 2.5 0 0 1 10 10h20a2.5 2.5 0 0 1 2.5 2.5M10 27.5h20v-15H10zM30 35v5h-2.5v-5h-15v5H10v-5a2.5 2.5 0 0 1 2.5-2.5h15A2.5 2.5 0 0 1 30 35" clip-rule="evenodd"/></svg>
